assets/images/new.svg

<svg height="14" viewBox="0 0 30 14" width="30" xmlns="http://www.w3.org/2000/svg" xmlns:xlink="http://www.w3.org/1999/xlink"><linearGradient id="a" x1="0%" x2="97.050251%" y1="47.978506%" y2="53.469339%"><stop offset="0" stop-color="#f55520"/><stop offset="1" stop-color="#e73b3b"/></linearGradient><g fill="none" fill-rule="evenodd"><path d="m4 0h22c2.209139-0 4 1.790861 4 4v6c0 2.209139-1.790861 4-4 4h-26v-10c-0-2.209139 1.790861-4 4-4z" fill="url(#a)"/><path d="m6.00746269 10.8v-4.9255618l3.06902985 4.9255618h.92350746v-7h-1.00746269v4.91573034l-3.06902985-4.91573034h-.92350746v7zm9.99253731 0v-.95365169h-3.0505495v-2.10393258h2.6021979v-.94382022h-2.6021979v-2.04494382h3.0505495v-.95365169h-4v7zm3.6383981 0 1.3568905-4.90589888 1.3663133 4.90589888h.8857479l1.7526502-7h-1.0742049l-1.1684335 5.00421348-1.3474676-5.00421348h-.819788l-1.3474676 5.00421348-1.1684335-5.00421348h-1.0742049l1.7526502 7z" fill="#fff" fill-rule="nonzero"/></g></svg>

<?xml version="1.0" encoding="UTF-8"?>
<svg width="30px" height="14px" viewBox="0 0 30 14" version="1.1" xmlns="http://www.w3.org/2000/svg" xmlns:xlink="http://www.w3.org/1999/xlink">
    <defs>
        <linearGradient x1="0%" y1="47.9785058%" x2="97.0502513%" y2="53.4693392%" id="linearGradient-1">
            <stop stop-color="#F55520" offset="0%"></stop>
            <stop stop-color="#E73B3B" offset="100%"></stop>
        </linearGradient>
    </defs>
    <g id="页面-1" stroke="none" stroke-width="1" fill="none" fill-rule="evenodd">
        <g id="编组-18">
            <path d="M4,0 L26,0 C28.209139,-2.36792184e-15 30,1.790861 30,4 L30,10 C30,12.209139 28.209139,14 26,14 L0,14 L0,14 L0,4 C-2.705415e-16,1.790861 1.790861,4.05812251e-16 4,0 Z" id="矩形" fill="url(#linearGradient-1)"></path>
            <path d="M6.00746269,10.8 L6.00746269,5.8744382 L9.07649254,10.8 L10,10.8 L10,3.8 L8.99253731,3.8 L8.99253731,8.71573034 L5.92350746,3.8 L5,3.8 L5,10.8 L6.00746269,10.8 Z M16,10.8 L16,9.84634831 L12.9494505,9.84634831 L12.9494505,7.74241573 L15.5516484,7.74241573 L15.5516484,6.79859551 L12.9494505,6.79859551 L12.9494505,4.75365169 L16,4.75365169 L16,3.8 L12,3.8 L12,10.8 L16,10.8 Z M19.6383981,10.8 L20.9952886,5.89410112 L22.3616019,10.8 L23.2473498,10.8 L25,3.8 L23.9257951,3.8 L22.7573616,8.80421348 L21.409894,3.8 L20.590106,3.8 L19.2426384,8.80421348 L18.0742049,3.8 L17,3.8 L18.7526502,10.8 L19.6383981,10.8 Z" id="NEW" fill="#FFFFFF" fill-rule="nonzero"></path>
        </g>
    </g>
</svg>
